X: 1261
T: Borlams Strathspey
%R: strathspey, air
B: Niel Gow & Sons "Complete Repository" v.1 p.26 #1
Z: 2021 John Chambers <jc:trillian.mit.edu>
M: C
L: 1/16
K: F
% - - - - - - - - - -
% Voice 1 formatted for compactness and proofreading.
V: 1 staves=2
d2 |:\
cA3 f3A Tc4 d4 | cA3 f3A G4 d4 | cA3 f3A cA3 {fg}a3g | f3dTc3A G4d4 ::\
TF3ATF3A Tc4d4 | TF3ATF3A TG4d4 | TF3ATF3A TF3ATF3A |
[1 TB3c (dc).B.A TG4 d4 :|2 TB3c (dc).B.A TG4 G2 :: g2 |\
Tf4 ({ef}dc).B.A Tf4 c2a2 | Tf4 ({ef}dc).B.A TG4 G3g |\
Tf4 ({ef}dc).B.A cA3 {A}a3g | {g}f3d {d}c3A TG4 G2 ::
d2 |\
.c.B.A.G ~F3A dcBA f3d | cBAG F3A TG4 d4 ||\
cBAG ~F3A dcBA Tf3g | agfd fdcA TG4 [d2G2] :|
% - - - - - - - - - -
% Voice 2 preserves the book's staff layout.
V: 2 clef=bass middle=d
z2 |: f4f4 a4b4 | a4f4 c'4b4 | a4f4 f4f4 | f4F4 c4B4 :: A4F4 A4B4 | A4F4 c4B4 | A4f4 f4_e4 |
[1 d4B4 c4B4 :|2 d4B4 c4C2 || z2 | f4f4 f4f4 | f4f4 c'4b4 | a4f4 f4f4 | [f4a2]{b}[f4a4] c'4b2 ::
z2 | [f4F4][f4F4] [f4F4][f4F4] | [f4F4][f4F4] [c'4c4][b4B4] |\
[a4A4][f4F4] [f4F4][f4F4] | [f4F4][f4F4] [c4C4][B2B,2] :|


